icons/flood-line.svg

<svg xmlns="http://www.w3.org/2000/svg" width="24" height="24" fill="none"><g clip-path="url(#a)"><g><path fill="#121212" d="M16 17.472C17.0989 18.4577 18.5237 19.002 20 19H22V21H20C18.5956 21.0023 17.2157 20.6331 16 19.93C14.7844 20.6333 13.4044 21.0024 12 21C10.5956 21.0023 9.21565 20.6331 8 19.93C6.7844 20.6333 5.40438 21.0024 4 21H2V19H4C5.537 19 6.94 18.422 8 17.472C9.09893 18.4577 10.5237 19.002 12 19C13.537 19 14.94 18.422 16 17.472ZM12.573 1.53197L12.673 1.61197L23 11H20V17C19.3188 17.0009 18.6424 16.8855 18 16.659V9.15697L12 3.70197L6 9.15597L6.001 16.658C5.45297 16.8518 4.8796 16.9646 4.299 16.993L4 17V11H1L11.327 1.61197C11.4948 1.45926 11.7096 1.36816 11.936 1.35362C12.1624 1.33908 12.387 1.40197 12.573 1.53197Z"/></g></g><defs><clipPath id="a"><rect width="24" height="24" fill="white"/></clipPath></defs></svg>

<svg width="24" height="24" fill="none" xmlns="http://www.w3.org/2000/svg"><g clip-path="url(#a)"><path d="M16 17.472A5.978 5.978 0 0 0 20 19h2v2h-2a7.963 7.963 0 0 1-4-1.07A7.96 7.96 0 0 1 12 21a7.963 7.963 0 0 1-4-1.07A7.96 7.96 0 0 1 4 21H2v-2h2c1.537 0 2.94-.578 4-1.528A5.978 5.978 0 0 0 12 19c1.537 0 2.94-.578 4-1.528Zm-3.427-15.94.1.08L23 11h-3v6a5.991 5.991 0 0 1-2-.341V9.157l-6-5.455-6 5.454.001 7.502a5.981 5.981 0 0 1-1.702.335L4 17v-6H1l10.327-9.388a1 1 0 0 1 1.246-.08Z" /></g><defs><clipPath id="a"><path fill="#fff" d="M0 0h24v24H0z"/></clipPath></defs></svg>
